images/svg/logo-htmlacademy.svg

<svg width="115" height="33" viewBox="0 0 115 33" fill="none" xmlns="http://www.w3.org/2000/svg">
<path fill-rule="evenodd" clip-rule="evenodd" d="M7.9999 6.2C8.7999 5.2 9.9999 4.5 11.5999 4.5C14.2999 4.5 16.1999 6.4 16.0999 9.4V15.5H14.0999V9.8C14.0999 8 12.9999 6.6 11.1999 6.6C9.1999 6.6 7.8999 8.1 7.8999 10.2V15.5H5.8999V0H7.8999V6.2H7.9999ZM0 15.5V12.9H2.5V15.5H0ZM26.5999 4.79998H21.7999V1.09998H19.7999V4.89998H17.8999V6.89998H19.7999V12.9C19.7999 14.6 20.7999 15.6 22.4999 15.6H26.5999V13.6H22.8999C22.1999 13.6 21.7999 13.2 21.7999 12.5V6.79998H26.5999V4.79998ZM37.6 6.69998C38.2 5.39998 39.5 4.59998 41.1 4.59998C43.6 4.59998 45.1 6.39998 45 8.89997V15.4H43V9.09998C43 7.49998 42.1 6.49998 40.6 6.49998C39.4 6.49998 38 7.39998 38 9.79998V15.4H36V9.09998C36 7.49998 35.1 6.49998 33.6 6.49998C32 6.49998 31 7.99998 31 9.99998V15.4H29V4.79998H30.9V6.39998H31C31.6 5.39998 32.7 4.59998 34.1 4.59998C35.7 4.59998 36.9 5.49998 37.5 6.69998H37.6ZM47.8 12.7C47.8 14.4 48.8 15.4 50.6 15.4H52.6V13.4H50.9001C50.2001 13.4 49.8 13 49.8 12.3V0H47.8V12.7ZM25.0001 17.9C26.7001 17.9 28.0001 18.6 28.9001 19.7V18.2H30.9001V28.8H28.9001V27.2H28.8001C28.0001 28.3 26.8001 29.1 25.0001 29.1C21.9001 29.1 19.6001 26.8 19.6001 23.5C19.6001 20.2 21.9001 17.9 25.0001 17.9ZM21.7001 23.5C21.7001 25.5 23.1001 27.1 25.3001 27.1C27.5001 27.1 28.9001 25.4 28.9001 23.5C28.9001 21.5 27.5001 19.9 25.3001 19.9C23.1001 19.9 21.7001 21.5 21.7001 23.5ZM44.2 22C43.7 19.6 41.5999 17.9 38.7999 17.9C35.3999 17.9 33.2 20.4 33.2 23.5C33.2 26.6 35.3999 29.1 38.7999 29.1C41.5999 29.1 43.7 27.3 44.2 24.9H42.0999C41.7 26.2 40.3999 27.2 38.7999 27.2C36.5999 27.2 35.2 25.6 35.2 23.6C35.2 21.6 36.5999 20 38.7999 20C40.3999 20 41.5999 21 42.0999 22.2H44.2V22ZM51.2001 17.9C52.9001 17.9 54.2001 18.6 55.1 19.7V18.2H57.1V28.8H55.1V27.2H55C54.2001 28.3 53 29.1 51.2001 29.1C48.1001 29.1 45.8 26.8 45.8 23.5C45.8 20.2 48.1001 17.9 51.2001 17.9ZM47.9001 23.5C47.9001 25.5 49.3 27.1 51.5 27.1C53.6 27.1 55.1 25.4 55.1 23.5C55.1 21.5 53.7001 19.9 51.5 19.9C49.3 19.9 47.9001 21.5 47.9001 23.5ZM68.6999 19.8C67.7999 18.7 66.4999 17.9 64.7999 17.9C61.6999 17.9 59.3999 20.2 59.3999 23.5C59.3999 26.8 61.5999 29.1 64.7999 29.1C66.4999 29.1 67.7999 28.3 68.5999 27.3H68.6999V28.8H70.6999V13.4H68.6999V19.8ZM65.0999 27.1C62.8999 27.1 61.4999 25.5 61.4999 23.5C61.4999 21.5 62.8999 19.9 65.0999 19.9C67.2999 19.9 68.6999 21.5 68.6999 23.5C68.5999 25.5 67.1999 27.1 65.0999 27.1ZM72.8 23.5C72.8 20.4 75 17.9 78.3 17.9C81.8 17.9 84 20.6 83.8 24.2H75C75.1 25.8 76.5 27.1 78.4 27.1C79.8 27.1 80.9 26.5 81.4 25.5H83.5C82.8 27.8 80.8 29.1 78.3 29.1C74.9 29.1 72.8 26.5 72.8 23.5ZM81.6 22.4C81.3 20.8 80 19.8 78.3 19.8C76.6001 19.8 75.4 20.9 75.1 22.4H81.6ZM98.2001 17.9C96.6001 17.9 95.3001 18.7 94.6001 19.9H94.5001C93.9001 18.7 92.7001 17.9 91.1001 17.9C89.7001 17.9 88.6001 18.6 88.0001 19.7V18.2H86.1001V28.8H88.1001V23.4C88.1001 21.4 89.1001 20 90.7001 19.9C92.2001 19.9 93.1001 20.9 93.1001 22.5V28.8H95.1001V23.2C95.1001 20.8 96.5001 19.9 97.7001 19.9C99.2001 19.9 100.1 20.9 100.1 22.5V28.8H102.1V22.3C102.2 19.7 100.7 17.9 98.2001 17.9ZM105.8 18.1L109.4 27L112.8 18.1H114.9L110.2 30.3C109.5 32.1 108.5 32.9 106.7 32.9H104.2V30.9H106.7C107.7 30.9 108.1 30.6 108.4 29.7L103.6 18.1H105.8Z" fill="black"/>
</svg>

<svg xmlns="http://www.w3.org/2000/svg" width="115" height="33" fill="none"><path fill="#000" fill-rule="evenodd" d="M8 6.2c.8-1 2-1.7 3.6-1.7 2.7 0 4.6 1.9 4.5 4.9v6.1h-2V9.8c0-1.8-1.1-3.2-2.9-3.2-2 0-3.3 1.5-3.3 3.6v5.3h-2V0h2v6.2H8Zm-8 9.3v-2.6h2.5v2.6H0ZM26.6 4.8h-4.8V1.1h-2v3.8h-1.9v2h1.9v6c0 1.7 1 2.7 2.7 2.7h4.1v-2h-3.7c-.7 0-1.1-.4-1.1-1.1V6.8h4.8v-2Zm11 1.9c.6-1.3 1.9-2.1 3.5-2.1 2.5 0 4 1.8 3.9 4.3v6.5h-2V9.1c0-1.6-.9-2.6-2.4-2.6-1.2 0-2.6.9-2.6 3.3v5.6h-2V9.1c0-1.6-.9-2.6-2.4-2.6C32 6.5 31 8 31 10v5.4h-2V4.8h1.9v1.6h.1c.6-1 1.7-1.8 3.1-1.8 1.6 0 2.8.9 3.4 2.1h.1Zm10.2 6c0 1.7 1 2.7 2.8 2.7h2v-2h-1.7c-.7 0-1.1-.4-1.1-1.1V0h-2v12.7ZM25 17.9c1.7 0 3 .7 3.9 1.8v-1.5h2v10.6h-2v-1.6h-.1c-.8 1.1-2 1.9-3.8 1.9-3.1 0-5.4-2.3-5.4-5.6s2.3-5.6 5.4-5.6Zm-3.3 5.6c0 2 1.4 3.6 3.6 3.6s3.6-1.7 3.6-3.6c0-2-1.4-3.6-3.6-3.6s-3.6 1.6-3.6 3.6ZM44.2 22c-.5-2.4-2.6-4.1-5.4-4.1-3.4 0-5.6 2.5-5.6 5.6 0 3.1 2.2 5.6 5.6 5.6 2.8 0 4.9-1.8 5.4-4.2h-2.1c-.4 1.3-1.7 2.3-3.3 2.3-2.2 0-3.6-1.6-3.6-3.6s1.4-3.6 3.6-3.6c1.6 0 2.8 1 3.3 2.2h2.1V22Zm7-4.1c1.7 0 3 .7 3.9 1.8v-1.5h2v10.6h-2v-1.6H55c-.8 1.1-2 1.9-3.8 1.9-3.1 0-5.4-2.3-5.4-5.6s2.3-5.6 5.4-5.6Zm-3.3 5.6c0 2 1.4 3.6 3.6 3.6 2.1 0 3.6-1.7 3.6-3.6 0-2-1.4-3.6-3.6-3.6s-3.6 1.6-3.6 3.6Zm20.8-3.7c-.9-1.1-2.2-1.9-3.9-1.9-3.1 0-5.4 2.3-5.4 5.6s2.2 5.6 5.4 5.6c1.7 0 3-.8 3.8-1.8h.1v1.5h2V13.4h-2v6.4Zm-3.6 7.3c-2.2 0-3.6-1.6-3.6-3.6s1.4-3.6 3.6-3.6 3.6 1.6 3.6 3.6c-.1 2-1.5 3.6-3.6 3.6Zm7.7-3.6c0-3.1 2.2-5.6 5.5-5.6 3.5 0 5.7 2.7 5.5 6.3H75c.1 1.6 1.5 2.9 3.4 2.9 1.4 0 2.5-.6 3-1.6h2.1c-.7 2.3-2.7 3.6-5.2 3.6-3.4 0-5.5-2.6-5.5-5.6Zm8.8-1.1c-.3-1.6-1.6-2.6-3.3-2.6-1.7 0-2.9 1.1-3.2 2.6h6.5Zm16.6-4.5c-1.6 0-2.9.8-3.6 2h-.1c-.6-1.2-1.8-2-3.4-2-1.4 0-2.5.7-3.1 1.8v-1.5h-1.9v10.6h2v-5.4c0-2 1-3.4 2.6-3.5 1.5 0 2.4 1 2.4 2.6v6.3h2v-5.6c0-2.4 1.4-3.3 2.6-3.3 1.5 0 2.4 1 2.4 2.6v6.3h2v-6.5c.1-2.6-1.4-4.4-3.9-4.4Zm7.6.2 3.6 8.9 3.4-8.9h2.1l-4.7 12.2c-.7 1.8-1.7 2.6-3.5 2.6h-2.5v-2h2.5c1 0 1.4-.3 1.7-1.2l-4.8-11.6h2.2Z" clip-rule="evenodd"/></svg>
